X: 1
T: Beautiful Goldfinch, The
M: 3/4
L: 1/8
R: waltz
K: Gmaj
ge|d3B BA|B4 GE|D3 E GA|B4 dB|
A3G AB|A3 B dg|e2 d2 B2|d3 g ge|
d3B BA|B4 GE|D3 E GA|B4 dB|
A3G AB|A3 B dg|e2 d2 BA|G4:|
ga|b2 ba ge|ag eg ge|d2 dB AG|AB G2 ga|
b2 ba ge|ag eg ge|d2 dB AG|A3 B GE|
D4 BA|G4 GA|B3 d dg|e4 G2|
A3G AB|A3 B dg|e2 d2 BA|G4:|
